Simply-Red-Circles/scalable/apps/preferences-desktop-emoticons.svg

<svg xmlns="http://www.w3.org/2000/svg" width="48" height="48" viewBox="0 0 12.7 12.7"><path d="M6.34.07a6.29 6.29 0 0 0-6.29 6.3 6.29 6.29 0 0 0 6.3 6.28 6.29 6.29 0 0 0 6.28-6.29A6.29 6.29 0 0 0 6.34.07zM6.32 1l.01.01a5.4 5.4 0 0 1 5.4 5.4 5.4 5.4 0 0 1-5.4 5.41 5.4 5.4 0 0 1-5.41-5.4A5.4 5.4 0 0 1 6.32 1zm-2.2 2.7a.95.95 0 0 0-.95.96.95.95 0 0 0 .96.95.95.95 0 0 0 .95-.95.95.95 0 0 0-.95-.96zm4.45 0a.95.95 0 0 0-.95.96.95.95 0 0 0 .95.95.95.95 0 0 0 .95-.95.95.95 0 0 0-.95-.96zM3.81 8.47a2.94 3.17 0 0 0 2.54 1.58A2.94 3.17 0 0 0 8.9 8.47h-.36a2.94 3.17 0 0 1-2.18 1.05 2.94 3.17 0 0 1-2.18-1.05H3.8z" fill="#a02c2c"/></svg>

<?xml version="1.0" encoding="UTF-8" standalone="no"?>
<svg
   xmlns:dc="http://purl.org/dc/elements/1.1/"
   xmlns:cc="http://creativecommons.org/ns#"
   xmlns:rdf="http://www.w3.org/1999/02/22-rdf-syntax-ns#"
   xmlns:svg="http://www.w3.org/2000/svg"
   xmlns="http://www.w3.org/2000/svg"
   xmlns:sodipodi="http://sodipodi.sourceforge.net/DTD/sodipodi-0.dtd"
   xmlns:inkscape="http://www.inkscape.org/namespaces/inkscape"
   width="48"
   height="48"
   viewBox="0 0 12.7 12.7"
   version="1.1"
   id="svg4"
   sodipodi:docname="preferences-desktop-emoticons.svg"
   inkscape:version="0.92.4 (5da689c313, 2019-01-14)">
  <metadata
     id="metadata10">
    <rdf:RDF>
      <cc:Work
         rdf:about="">
        <dc:format>image/svg+xml</dc:format>
        <dc:type
           rdf:resource="http://purl.org/dc/dcmitype/StillImage" />
        <dc:title></dc:title>
      </cc:Work>
    </rdf:RDF>
  </metadata>
  <defs
     id="defs8" />
  <sodipodi:namedview
     pagecolor="#ffffff"
     bordercolor="#666666"
     borderopacity="1"
     objecttolerance="10"
     gridtolerance="10"
     guidetolerance="10"
     inkscape:pageopacity="0"
     inkscape:pageshadow="2"
     inkscape:window-width="1087"
     inkscape:window-height="480"
     id="namedview6"
     showgrid="false"
     inkscape:zoom="4.9166667"
     inkscape:cx="2.1355932"
     inkscape:cy="24"
     inkscape:window-x="0"
     inkscape:window-y="25"
     inkscape:window-maximized="0"
     inkscape:current-layer="svg4" />
  <path
     d="M 6.34,0.07 A 6.29,6.29 0 0 0 0.05,6.37 6.29,6.29 0 0 0 6.35,12.65 6.29,6.29 0 0 0 12.63,6.36 6.29,6.29 0 0 0 6.34,0.07 Z M 6.32,1 6.33,1.01 a 5.4,5.4 0 0 1 5.4,5.4 5.4,5.4 0 0 1 -5.4,5.41 A 5.4,5.4 0 0 1 0.92,6.42 5.4,5.4 0 0 1 6.32,1 Z M 4.12,3.7 A 0.95,0.95 0 0 0 3.17,4.66 0.95,0.95 0 0 0 4.13,5.61 0.95,0.95 0 0 0 5.08,4.66 0.95,0.95 0 0 0 4.13,3.7 Z m 4.45,0 A 0.95,0.95 0 0 0 7.62,4.66 0.95,0.95 0 0 0 8.57,5.61 0.95,0.95 0 0 0 9.52,4.66 0.95,0.95 0 0 0 8.57,3.7 Z M 3.81,8.47 A 2.94,3.17 0 0 0 6.35,10.05 2.94,3.17 0 0 0 8.9,8.47 H 8.54 A 2.94,3.17 0 0 1 6.36,9.52 2.94,3.17 0 0 1 4.18,8.47 H 3.8 Z"
     id="path2"
     inkscape:connector-curvature="0"
     style="fill:#a02c2c" />
</svg>
